X: 3
P: Spin & Glow
C: Frank Ferrel
R: Jig
M: 6/8
L: 1/8
K: G
GFE \
|: "G"DGB d2B |    d3  d2z  |  "G"DGB  dcB |  "Am"  c3   c2z  |"D7"DFA d^cd |    d^cd de=f |
|1"D7"e2c A2^A| "G"B3  BGE :|2"D7"TeAc BFA |  "G"   G3   Bdg  |:"G"b2g d2g  |     dBG DGB  |"(Am)"dcc c2B |
| "Am"c3  cde |"D7"fgf f2e  |     ded  d2e |1"(Dm)"=fed cA^A | "G"B3  Bdg :|2"D7"fed cAF  | "G"G3 |]
